public/heart.svg

<?xml version="1.0" encoding="UTF-8"?> <svg xmlns="http://www.w3.org/2000/svg" width="60" height="60" viewBox="0 0 60 60" fill="none"> <path d="M30.25 46.375L30 46.625L29.725 46.375C17.85 35.6 10 28.475 10 21.25C10 16.25 13.75 12.5 18.75 12.5C22.6 12.5 26.35 15 27.675 18.4H32.325C33.65 15 37.4 12.5 41.25 12.5C46.25 12.5 50 16.25 50 21.25C50 28.475 42.15 35.6 30.25 46.375ZM41.25 7.5C36.9 7.5 32.725 9.525 30 12.7C27.275 9.525 23.1 7.5 18.75 7.5C11.05 7.5 5 13.525 5 21.25C5 30.675 13.5 38.4 26.375 50.075L30 53.375L33.625 50.075C46.5 38.4 55 30.675 55 21.25C55 13.525 48.95 7.5 41.25 7.5Z" fill="white"></path> </svg>

<svg id="Слой_1" data-name="Слой 1" xmlns="http://www.w3.org/2000/svg" viewBox="0 0 60 60"><defs><style>.cls-1{fill:#de2f3d;}</style></defs><path class="cls-1" d="M30.25,46.38l-.25.24-.27-.24C17.85,35.6,10,28.48,10,21.25a8.54,8.54,0,0,1,8.75-8.75,9.8,9.8,0,0,1,8.92,5.9h4.66a9.8,9.8,0,0,1,8.92-5.9A8.54,8.54,0,0,1,50,21.25C50,28.48,42.15,35.6,30.25,46.38Zm11-38.88A15,15,0,0,0,30,12.7,15,15,0,0,0,18.75,7.5,13.6,13.6,0,0,0,5,21.25c0,9.42,8.5,17.15,21.38,28.83L30,53.38l3.62-3.3C46.5,38.4,55,30.67,55,21.25A13.6,13.6,0,0,0,41.25,7.5Z"/></svg>
